Origami/16x16/apps/fcitx-sogoupinyin.svg

<svg width="16" height="16" version="1" xmlns="http://www.w3.org/2000/svg">
 <circle cx="8" cy="8" r="8" style="fill:#e9541d"/>
 <path d="m7.7479407 4.0015805c-0.2973347 0.0053333-0.592336 0.0166667-0.7863367 0.0456667-0.8690047 0.1330006-1.5646747 0.4383353-2.0133434 0.8823373-0.245668 0.240668-0.3913353 0.4996694-0.4873354 0.8363381-0.052667 0.203334-0.070667 0.6700027-0.015667 0.848004 0.1826673 0.6273358 0.615336 1.1093388 1.4310067 1.5926738 0.3463347 0.205002 0.613336 0.339668 1.3836734 0.687337 0.9236707 0.415335 1.2053387 0.583003 1.3366727 0.790671 0.051333 0.08433 0.071001 0.127667 0.063 0.229-0.013667 0.1606676-0.094334 0.2406676-0.2830014 0.3093356-0.1256673 0.04433-0.1706673 0.05867-0.4086686 0.05733-0.4363354-3e-3 -0.8200041-0.08467-1.3523401-0.275001-0.3753353-0.1316676-0.7470033-0.3136676-1.053338-0.5156696-0.3083354-0.202-0.3333354-0.209334-0.4246687-0.160334-0.069001 0.03733-0.5720033 0.48567-0.943338 0.8480036-0.241668 0.236335-0.245668 0.283668-0.078667 0.447002 0.1650007 0.163002 0.6270034 0.505336 0.8806714 0.653004 0.275334 0.161667 0.460002 0.252334 0.7703367 0.366668 0.5206693 0.193334 0.9576714 0.273668 1.7766754 0.343668 0.1866673 0.01567 0.851004 0.01733 1.0850054 0 1.2816727-0.103 2.3273439-0.521336 2.8773469-1.134338 0.196668-0.217668 0.316335-0.404002 0.408668-0.66467 0.09067-0.2533346 0.114001-0.7516696 0.04733-1.0540046-0.110333-0.49-0.405001-0.932335-0.880671-1.306004-0.477332-0.374001-0.961001-0.623002-2.1226733-1.0883378-0.8116707-0.3236687-1.116672-0.4956694-1.195006-0.6760034-0.0433333-0.0960006-0.0176667-0.267668 0.0473333-0.3323353 0.1276674-0.1290007 0.3733347-0.1760007 0.6920034-0.137334 0.5936693 0.073001 1.3556727 0.3453353 2.0283426 0.72167 0.129667 0.071334 0.255335 0.1316674 0.283001 0.137334 0.108334 0.028667 0.175002-0.014333 0.613337-0.5156687 0.538336-0.6173367 0.532669-0.59167 0.236001-0.802004-0.882671-0.6333367-1.9063422-1.0000047-3.0820149-1.1113387-0.2340007-0.021333-0.5360027-0.028-0.8333374-0.023z" style="fill:#ffffff"/>
</svg>

<svg xmlns="http://www.w3.org/2000/svg" width="16" height="16" version="1">
 <circle style="fill:#e9541d" cx="8" cy="8" r="8"/>
 <path style="fill:#ffffff" d="M 7.7479407,4.0015805 C 7.450606,4.0069138 7.1556047,4.0182472 6.961604,4.0472472 6.0925993,4.1802478 5.3969293,4.4855825 4.9482606,4.9295845 4.7025926,5.1702525 4.5569253,5.4292539 4.4609252,5.7659226 c -0.052667,0.203334 -0.070667,0.6700027 -0.015667,0.848004 0.1826673,0.6273358 0.615336,1.1093388 1.4310067,1.5926738 0.3463347,0.205002 0.613336,0.339668 1.3836734,0.687337 0.9236707,0.415335 1.2053387,0.583003 1.3366727,0.790671 0.051333,0.08433 0.071001,0.127667 0.063,0.229 C 8.645944,10.074276 8.565277,10.154276 8.3766096,10.222944 8.2509423,10.267274 8.2059423,10.281614 7.967941,10.280274 7.5316056,10.277274 7.1479369,10.195604 6.6156009,10.005273 6.2402656,9.8736054 5.8685976,9.6916054 5.5622629,9.4896034 c -0.3083354,-0.202 -0.3333354,-0.209334 -0.4246687,-0.160334 -0.069001,0.03733 -0.5720033,0.48567 -0.943338,0.8480036 -0.241668,0.236335 -0.245668,0.283668 -0.078667,0.447002 0.1650007,0.163002 0.6270034,0.505336 0.8806714,0.653004 0.275334,0.161667 0.460002,0.252334 0.7703367,0.366668 0.5206693,0.193334 0.9576714,0.273668 1.7766754,0.343668 0.1866673,0.01567 0.851004,0.01733 1.0850054,0 1.2816727,-0.103 2.3273439,-0.521336 2.8773469,-1.134338 0.196668,-0.217668 0.316335,-0.404002 0.408668,-0.66467 0.09067,-0.2533346 0.114001,-0.7516696 0.04733,-1.0540046 -0.110333,-0.49 -0.405001,-0.932335 -0.880671,-1.306004 C 10.60362,7.4545974 10.119951,7.2055964 8.9582787,6.7402606 8.146608,6.4165919 7.8416067,6.2445912 7.7632727,6.0642572 7.7199394,5.9682566 7.745606,5.7965892 7.810606,5.7319219 7.9382734,5.6029212 8.1839407,5.5559212 8.5026094,5.5945879 c 0.5936693,0.073001 1.3556727,0.3453353 2.0283426,0.72167 0.129667,0.071334 0.255335,0.1316674 0.283001,0.137334 0.108334,0.028667 0.175002,-0.014333 0.613337,-0.5156687 0.538336,-0.6173367 0.532669,-0.59167 0.236001,-0.802004 C 10.78062,4.5025825 9.7569488,4.1359145 8.5812761,4.0245805 c -0.2340007,-0.021333 -0.5360027,-0.028 -0.8333374,-0.023 z"/>
</svg>
